!!!SOCIAL_FUNCTION:	songs of the drum religion
!!!PDT:	1932
!!!OTL: No_85_Song_when_Pipe_is_Lighted.krn
!!!REG: Wisconsin
!!!LANG: Non-Tone
!!!LING_GROUP: Algonquin
**kern
*staff1
=1-
*clefF4
*k[b-e-a-d-]
*M3/4
8e-\L
8e-\J
12c\L
12c\
12c\J
8c\L
16c\Jk
16r
=2
8c\L
8c\J
12c\L
12c\
12c\J
8c\L
16G\Jk
16r
=3
8e-\L
8e-\J
12c\L
12c\
12c\J
8c\L
16c\Jk
16r
=4
8c\L
8c\J
12c\L
12c\
12c\J
8c\L
16G\Jk
16r
=5!|:
12c\L
12c\
12c\J
12c\L
12c\
12c\J
12c\L
12c\
12G\J
=6||
*M2/4
8F\L
8F\J
8F\L
8G\J
=7
8F\L
8F\J
12F\L
12F\
12F\J
=8||
*M3/4
8E-\L
8E-\J
8.E-/L
16C/Jk
8C/L
16C/Jk
16r
=9
8E-\L
8E-\J
12E-\L
12E-\
12E-\J
16E-\LL
16E-\
16E-\
16E-\JJ
=10||
*M2/4
8.C/L
16C/Jk
8C/L
8C/J
=11
2C/
=12
4C/
4r
=13:|!
2C/
=14
8C/
8r
8e-\L
8e-\J
=15
8c\L
8c\J
16c\LL
16c\
16c\
16c\JJ
=16
8c\L
8c\J
8e-\L
8e-\J
=17
*M3/4
8c\L
8c\J
16c\LL
16c\
16c\
16c\JJ
4c\
=18!|:
*M2/4
8c\L
8B-\J
8A-\L
8A-\J
=19||
*M3/4
8B-\L
8B-\J
8c\L
8B-\J
4A-\
=20
8F\L
8F\J
16F\LL
16F\
16F\
16F\JJ
8F\L
16F\Jk
16r
=21||
*M2/4
8A-\L
8A-\J
8F\L
8F\J
=22||
*M3/4
8A-\L
8F\J
16F\LL
16F\
16F\
16F\JJ
8F/L
16C/Jk
16r
=23||
*M2/4
[2F\
=24
8.F/L]
16C/Jk
4C/
=25
8c\L
16c\L
16c\JJ
8c\L
8c\J
==:|!
*-
